X:1
T:Title
%%score { ( 1 3 ) | ( 2 4 ) }
L:1/8
M:6/8
K:Ab
V:1 treble nm="Grand Piano"
V:3 treble 
V:2 bass 
V:4 bass 
V:1
 z3 z2[Q:1/4=90] E | [Ec]>[DB][CA] BAF | [CE] [CA]2- [CA]2 [CA] | c>BA ecA | [GB]3- [GB]2 z/ G,/ | %5
 [Ec]>[DB][CA] ABc | [Fe] [Fd]2- [Fd]2 F | E>FE cBG |[M:5/8] [CA]-[CA]- [CA]3 |[M:1/8] A | %10
[M:3/4] A>G FF =EF | GC- C3 C | A>G A[GB] [FA][GB] | c4- cA/B/ | c>c cc cc | cc- c3 [CGB] | %16
 [CFA][CFA] [CFA][DFA] [B,FG][_CF] |[M:7/8] c-[Gc-][Fc-] [=Ec]d- [Gd]2 | %18
[M:3/4] [Ec]>[DB] [CA]B AF | [CE][CA]- [CA]3 [CA] | c>B Ae cA | [GB]4- [GB] z/ G,/ | %22
 [Ec]>[DB] [CA]A Bc | [Fe][Fd]- [Fd]3 F | E>F Ec BG |[M:13/8] [CA]-[CA]- [CA]3 z z z z z z z2 |] %26
V:2
 z3 z2 E, | [A,,A,]>[A,,A,][A,,A,] [D,F,D][D,F,D][D,A,D] | [A,,A,] [A,,E,]2- [A,,E,]2 [A,,E,] | %3
 [A,E]>[A,DE][A,CE] [A,CE][A,EA][K:bass][A,CE] | [E,E]3- [E,E]2 [E,G,]/E,/ | %5
 [A,,A,]>[A,,A,][A,,A,][K:treble] [A,C][A,CG][A,_G] | [D,A,] [D,A,]2- [D,A,]2 [D,A,D] | %7
 [E,A,C]>[E,A,D][E,A,C] [E,G,E][E,G,E][E,B,D] |[M:5/8] [A,,A,]-[A,,A,]- [A,,A,]3 |[M:1/8] [A,C] | %10
[M:3/4] [F,CF]>[F,B,C] [F,A,C][A,C] [G,B,C][F,A,] | G,C,- C,3 C, | %12
 [F,CF]>[F,C=E] [F,CF][E,_E] [E,E][E,E] | [A,EA]4- [A,EA]E/-[A,DE]/ | %14
 [A,E]>[A,CE][K:bass] [A,E][G,B,=E] [G,B,E][G,B,E] | [F,A,F][F,A,F]- [F,A,F]3 =E, | %16
 F,F, F,D, D,D, |[M:7/8] z B,A, G,B,- [E,B,]2 | %18
[M:3/4] [A,,A,]>[A,,A,] [A,,A,][D,F,D] [D,F,D][D,A,D] | [A,,A,][A,,E,]- [A,,E,]3 [A,,E,] | %20
 [A,E]>[A,DE] [A,CE][A,CE] [A,EA][K:bass][A,CE] | [E,E]4- [E,E][E,G,]/E,/ | %22
 [A,,A,]>[A,,A,] [A,,A,][K:treble][A,C] [A,CG][A,_G] | [D,A,][D,A,]- [D,A,]3 [D,A,D] | %24
 [E,A,C]>[E,A,D] [E,A,C][E,G,E] [E,G,E][E,B,D] | %25
[M:13/8] [A,,A,]-[A,,A,]- [A,,A,]3 z z z z z z z2 |] %26
V:3
 x6 | x6 | x6 | x6 | z3 z2 E | x6 | x6 | x6 |[M:5/8] x5 |[M:1/8] x |[M:3/4] x6 | x6 | x6 | x6 | %14
 x6 | x6 | x6 |[M:7/8] [C=E] z z2 F z2 |[M:3/4] x6 | x6 | x6 | z2 z2 z E | x6 | x6 | x6 | %25
[M:13/8] x13 |] %26
V:4
 x6 | x6 | x6 | x5[K:bass] x | x6 | x3[K:treble] x3 | x6 | x6 |[M:5/8] x5 |[M:1/8] x |[M:3/4] x6 | %11
 x6 | x6 | z2 z2 z .[A,C] | x2[K:bass] x4 | x6 | x6 |[M:7/8] C,- C,3 B,, z2 |[M:3/4] x6 | x6 | %20
 x5[K:bass] x | x6 | x3[K:treble] x3 | x6 | x6 |[M:13/8] x13 |] %26

